svgs/sharp-regular/hand-pointer.svg

<svg xmlns="http://www.w3.org/2000/svg" viewBox="0 0 448 512"><!--! Font Awesome Pro 6.6.0 by @fontawesome - https://fontawesome.com License - https://fontawesome.com/license (Commercial License) Copyright 2024 Fonticons, Inc. --><path d="M136 0L112 0l0 24 0 236.6L95.1 235.2l-13.3-20-20 13.3L10.7 262.6 0 269.7l0 12.8 0 33.5 0 7.3 4 6 6.7 10.1L78.2 440.8c29.7 44.5 79.6 71.2 133.1 71.2l.7 0s0 0 0 0l.1 0s0 0 0 0L328 512c66.3 0 120-53.7 120-120l0-16 0-88 0-48 0-24-24 0-40 0 0-24-24 0-48 0 0-8 0-24-24 0-48 0 0-136 0-24L216 0 136 0zM264 240l24 0 48 0 0 24 24 0 40 0 0 24 0 88 0 16c0 39.8-32.2 72-72 72l-115.7 0s0 0 0 0l-.1 0s0 0 0 0l-.7 0c-37.4 0-72.4-18.7-93.2-49.9L50.7 312.9l-2.7-4 0-13.4 20.4-13.6 8.9 13.3 24.4 36.5L117.9 356l20.7-20.7L153 321l7-7 0-9.9 0-256 32 0 0 136 0 24 24 0 48 0 0 8 0 24zm-40 64l0-16-32 0 0 16 0 96 0 16 32 0 0-16 0-96zm64-16l-32 0 0 16 0 96 0 16 32 0 0-16 0-96 0-16zm64 16l0-16-32 0 0 16 0 96 0 16 32 0 0-16 0-96z"/></svg>

<svg xmlns="http://www.w3.org/2000/svg" viewBox="0 0 448 512"><!--! Font Awesome Pro 6.4.0 by @fontawesome - https://fontawesome.com License - https://fontawesome.com/license (Commercial License) Copyright 2023 Fonticons, Inc. --><path d="M136 0H112V24 260.6L95.1 235.2l-13.3-20-20 13.3L10.7 262.6 0 269.7v12.8 33.5 7.3l4 6 6.7 10.1L78.2 440.8c29.7 44.5 79.6 71.2 133.1 71.2h.7 0l.1 0h0H328c66.3 0 120-53.7 120-120V376 288 240 216H424 384V192H360 312v-8V160H288 240V24 0H216 136zM264 240h24 48v24h24 40v24 88 16c0 39.8-32.2 72-72 72H212.3h0l-.1 0h0-.7c-37.4 0-72.4-18.7-93.2-49.9L50.7 312.9l-2.7-4V295.4l20.4-13.6 8.9 13.3 24.4 36.5L117.9 356l20.7-20.7L153 321l7-7V304 48h32V184v24h24 48v8 24zm-40 64V288H192v16 96 16h32V400 304zm64-16H256v16 96 16h32V400 304 288zm64 16V288H320v16 96 16h32V400 304z"/></svg>
